assets/img/braze_icons/inbox-02.svg

<svg fill="none" height="24" viewBox="0 0 24 24" width="24" xmlns="http://www.w3.org/2000/svg"><g fill="#801ed7"><path d="m17.2413 3h-10.4826c-.80496-.00001-1.46933-.00002-2.01052.04419-.5621.04593-1.07881.14449-1.56414.39179-.75265.38349-1.36457.99541-1.74806 1.74806-.2473.48533-.34586 1.00204-.39179 1.56414-.044212.54119-.044202 1.20554-.04419 2.01051v.64131c0 .56005 0 .8401.10899 1.054.09588.1882.24886.3411.43702.437.21391.109.49394.109 1.05399.109h3.28197c1.06397 0 2.03663.6011 2.51246 1.5528.13704.2741.41717.4472.7236.4472h5.76397c.3064 0 .5865-.1731.7236-.4472.4758-.9517 1.4485-1.5528 2.5124-1.5528h3.282c.5601 0 .8401 0 1.054-.109.1882-.0959.3411-.2488.437-.437.109-.2139.109-.49395.109-1.054v-.64132c0-.80496 0-1.46931-.0442-2.0105-.0459-.5621-.1445-1.07881-.3918-1.56414-.3835-.75265-.9954-1.36457-1.748-1.74806-.4854-.2473-1.0021-.34586-1.5642-.39179-.5412-.04421-1.2055-.0442-2.0105-.04419z"/><path d="m23 14.6c0-.5601 0-.8401-.109-1.054-.0959-.1882-.2488-.3411-.437-.437-.2139-.109-.4939-.109-1.054-.109h-3.282c-.3064 0-.5865.1731-.7236.4472-.4758.9517-1.4485 1.5528-2.5124 1.5528h-5.76397c-1.06397 0-2.03663-.6011-2.51246-1.5528-.13704-.2741-.41717-.4472-.7236-.4472h-3.28197c-.56005 0-.84008 0-1.05399.109-.18816.0959-.34114.2488-.43702.437-.10899.2139-.10899.4939-.10899 1.054v.6413c-.000012.805-.000022 1.4693.04419 2.0105.04593.5621.14449 1.0788.39179 1.5642.38349.7526.99541 1.3645 1.74806 1.748.48533.2473 1.00204.3459 1.56414.3918.54119.0442 1.20554.0442 2.0105.0442h10.48262c.805 0 1.4693 0 2.0105-.0442.5621-.0459 1.0788-.1445 1.5642-.3918.7526-.3835 1.3645-.9954 1.748-1.748.2473-.4854.3459-1.0021.3918-1.5642.0442-.5412.0442-1.2055.0442-2.0105z"/></g></svg>

<svg width="24" height="24" viewBox="0 0 24 24" fill="none" xmlns="http://www.w3.org/2000/svg">
<path d="M17.2413 3H6.7587C5.95374 2.99999 5.28937 2.99998 4.74818 3.04419C4.18608 3.09012 3.66937 3.18868 3.18404 3.43598C2.43139 3.81947 1.81947 4.43139 1.43598 5.18404C1.18868 5.66937 1.09012 6.18608 1.04419 6.74818C0.999978 7.28937 0.999988 7.95372 1 8.75869V9.4C1 9.96005 1 10.2401 1.10899 10.454C1.20487 10.6422 1.35785 10.7951 1.54601 10.891C1.75992 11 2.03995 11 2.6 11H5.88197C6.94594 11 7.9186 11.6011 8.39443 12.5528C8.53147 12.8269 8.8116 13 9.11803 13H14.882C15.1884 13 15.4685 12.8269 15.6056 12.5528C16.0814 11.6011 17.0541 11 18.118 11H21.4C21.9601 11 22.2401 11 22.454 10.891C22.6422 10.7951 22.7951 10.6422 22.891 10.454C23 10.2401 23 9.96005 23 9.4V8.75868C23 7.95372 23 7.28937 22.9558 6.74818C22.9099 6.18608 22.8113 5.66937 22.564 5.18404C22.1805 4.43139 21.5686 3.81947 20.816 3.43598C20.3306 3.18868 19.8139 3.09012 19.2518 3.04419C18.7106 2.99998 18.0463 2.99999 17.2413 3Z" fill="#801ED7"/>
<path d="M23 14.6C23 14.0399 23 13.7599 22.891 13.546C22.7951 13.3578 22.6422 13.2049 22.454 13.109C22.2401 13 21.9601 13 21.4 13H18.118C17.8116 13 17.5315 13.1731 17.3944 13.4472C16.9186 14.3989 15.9459 15 14.882 15H9.11803C8.05406 15 7.0814 14.3989 6.60557 13.4472C6.46853 13.1731 6.1884 13 5.88197 13H2.6C2.03995 13 1.75992 13 1.54601 13.109C1.35785 13.2049 1.20487 13.3578 1.10899 13.546C1 13.7599 1 14.0399 1 14.6V15.2413C0.999988 16.0463 0.999978 16.7106 1.04419 17.2518C1.09012 17.8139 1.18868 18.3306 1.43598 18.816C1.81947 19.5686 2.43139 20.1805 3.18404 20.564C3.66937 20.8113 4.18608 20.9099 4.74818 20.9558C5.28937 21 5.95372 21 6.75868 21H17.2413C18.0463 21 18.7106 21 19.2518 20.9558C19.8139 20.9099 20.3306 20.8113 20.816 20.564C21.5686 20.1805 22.1805 19.5686 22.564 18.816C22.8113 18.3306 22.9099 17.8139 22.9558 17.2518C23 16.7106 23 16.0463 23 15.2413V14.6Z" fill="#801ED7"/>
</svg>
